; generated by PrusaSlicer 2.6.0+win64 on 2023-07-13 at 17:46:11 UTC


;
;
; 

; external perimeters extrusion width = 0.45mm
; perimeters extrusion width = 0.45mm
; infill extrusion width = 0.45mm
; solid infill extrusion width = 0.45mm
; top infill extrusion width = 0.40mm
; first layer extrusion width = 0.42mm

M73 P0 R67
M73 Q0 S67
M201 X1000 Y1000 Z200 E5000 ; sets maximum accelerations, mm/sec^2
M203 X200 Y200 Z12 E120 ; sets maximum feedrates, mm / sec
M204 S1250 T1250 ; sets acceleration (S) and retract acceleration (R), mm/sec^2
M205 X8.00 Y8.00 Z0.40 E4.50 ; sets the jerk limits, mm/sec
M205 S0 T0 ; sets the minimum extruding and travel feed rate, mm/sec
;TYPE:Custom
M862.3 P "MK3S" ; printer model check
M862.1 P0.4 ; nozzle diameter check
M115 U3.10.0 ; tell printer latest fw version
M221 S100 ; reset flow
M220 S100 ; reset speed
G90 ; use absolute coordinates
M83 ; extruder relative mode
M104 S190 ; set extruder temp to x-40
M140 S85 ; set bed temp
M109 S190 ; wait for extruder temp
M190 S85 ; wait for bed temp
G28 W ; home all without mesh bed level
G80 ; mesh bed leveling
G1 Y-3.0 Z0.15 F1000.0 ; go outside print area
M84 ; disable motors
M117 Heating nozzle
M104 S230 ; set extruder temp
M109 S230 ; wait for extruder temp
G92 E0.0

G1 X60.0 E9.0 F1000.0 ; intro line
G1 X100.0 E12.5 F1000.0 ; intro line
G92 E0.0
M221 S95

; Don't change E values below. Excessive value can damage the printer.

M907 E538 ; set extruder motor current
G21 ; set units to millimeters
G90 ; use absolute coordinates
M83 ; use relative distances for extrusion
M900 K0.08 ; Filament gcode LA 1.5
M900 K45 ; Filament gcode LA 1.0
M107 ; disable fan
;LAYER_CHANGE
;Z:0.2
;HEIGHT:0.2
;BEFORE_LAYER_CHANGE
G92 E0.0
;0.2
;LAYER:0


M73 P0 R66
G1 E-1 F2100 ; retract
G1 Z.2 F720 ; lift Z
;AFTER_LAYER_CHANGE
;0.2
G1 Z.4 ; lift Z
G1 X72.815 Y67.478 F10800 ; move to first skirt point
G1 Z.2 F720 ; restore layer Z
G1 E1 F2100 ;  ; unretract
M204 S800 ; adjust acceleration
;TYPE:Skirt/Brim
;WIDTH:0.42
G1 F1200
G1 X73.86 Y66.602 E.04275 ; skirt
G1 X74.8 Y66.408 E.03009 ; skirt
G1 X175.2 Y66.408 E3.14797 ; skirt
G1 X176.507 Y66.8 E.04278 ; skirt
G1 X177.383 Y67.845 E.04275 ; skirt
G1 X177.577 Y68.785 E.03009 ; skirt
G1 X177.577 Y141.215 E2.27099 ; skirt
G1 X177.185 Y142.522 E.04278 ; skirt
G1 X176.14 Y143.398 E.04275 ; skirt
G1 X175.2 Y143.592 E.03009 ; skirt
G1 X97.177 Y143.592 E2.44636 ; skirt
G1 X95.496 Y142.896 E.05705 ; skirt
G1 X73.119 Y120.519 E.99223 ; skirt
G1 X72.423 Y118.838 E.05705 ; skirt
G1 X72.423 Y68.785 E1.56938 ; skirt
G1 X72.797 Y67.536 E.04088 ; skirt
M204 S1000 ; adjust acceleration
; printing object Voltmeter Clock Case v12 id:0 copy 0
;WIPE_START
G1 F8640
G1 X73.86 Y66.602 E-.32674 ; wipe and retract
G1 X74.8 Y66.408 E-.22162 ; wipe and retract
G1 X76.756 Y66.408 E-.45164 ; wipe and retract
;WIPE_END
G1 Z.4 F720 ; lift Z
G1 X174.413 Y69.572 F10800 ; move to first perimeter point
G1 Z.2 F720 ; restore layer Z
G1 E1 F2100 ;  ; unretract
M204 S800 ; adjust acceleration
;TYPE:Perimeter
;WIDTH:0.419999
G1 F1200
G1 X174.413 Y140.428 E2.22164 ; perimeter
G1 X97.503 Y140.428 E2.41145 ; perimeter
M73 Q0 S66
G1 X75.587 Y118.512 E.97179 ; perimeter
G1 X75.587 Y69.572 E1.53448 ; perimeter
G1 X174.353 Y69.572 E3.09673 ; perimeter
M204 S1000 ; adjust acceleration
G1 X174.79 Y69.195 F10800 ; move to first perimeter point
M204 S800 ; adjust acceleration
;TYPE:External perimeter
M73 P1 R66
M73 Q1 S66
G1 F1200
G1 X174.79 Y140.805 E2.24528 ; perimeter
G1 X97.347 Y140.805 E2.42817 ; perimeter
G1 X75.21 Y118.668 E.98159 ; perimeter
G1 X75.21 Y69.195 E1.55119 ; perimeter
G1 X174.73 Y69.195 E3.12037 ; perimeter
M204 S1000 ; adjust acceleration
G1 X174.645 Y69.568 F10800 ; move inwards before travel
;WIPE_START
G1 F8640
G1 X174.734 Y73.526 E-1 ; wipe and retract
;WIPE_END
G1 Z.4 F720 ; lift Z
G1 X157.407 Y96.025 F10800 ; move to first perimeter point
G1 Z.2 F720 ; restore layer Z
G1 E1 F2100 ;  ; unretract
M204 S800 ; adjust acceleration
;TYPE:Perimeter
G1 F1200
G1 X158.951 Y96.02 E.04841 ; perimeter
G1 X159.082 Y96.035 E.00413 ; perimeter
G1 X160.544 Y96.382 E.04711 ; perimeter
G1 X160.668 Y96.427 E.00414 ; perimeter
G1 X162.011 Y97.101 E.04711 ; perimeter
G1 X162.121 Y97.173 E.00412 ; perimeter
G1 X163.272 Y98.14 E.04713 ; perimeter
G1 X163.362 Y98.235 E.0041 ; perimeter
G1 X164.259 Y99.441 E.04713 ; perimeter
G1 X164.325 Y99.554 E.0041 ; perimeter
G1 X164.92 Y100.934 E.04712 ; perimeter
G1 X164.958 Y101.06 E.00413 ; perimeter
G1 X165.219 Y102.541 E.04715 ; perimeter
G1 X165.227 Y102.671 E.00408 ; perimeter
G1 X165.139 Y104.172 E.04714 ; perimeter
G1 X165.116 Y104.301 E.00411 ; perimeter
G1 X164.685 Y105.741 E.04713 ; perimeter
G1 X164.633 Y105.861 E.0041 ; perimeter
G1 X163.882 Y107.163 E.04713 ; perimeter
G1 X163.804 Y107.268 E.0041 ; perimeter
G1 X162.772 Y108.362 E.04716 ; perimeter
G1 X162.672 Y108.446 E.00409 ; perimeter
G1 X161.416 Y109.272 E.04713 ; perimeter
G1 X161.299 Y109.331 E.00411 ; perimeter
G1 X159.886 Y109.845 E.04714 ; perimeter
G1 X159.758 Y109.875 E.00412 ; perimeter
G1 X158.266 Y110.05 E.0471 ; perimeter
G1 X158.134 Y110.05 E.00414 ; perimeter
G1 X156.642 Y109.875 E.0471 ; perimeter
G1 X156.514 Y109.845 E.00412 ; perimeter
G1 X155.101 Y109.331 E.04714 ; perimeter
G1 X153.728 Y108.446 E.05122 ; perimeter
G1 X153.606 Y108.339 E.00509 ; perimeter
G1 X152.596 Y107.268 E.04616 ; perimeter
G1 X152.223 Y106.652 E.02258 ; perimeter
G1 X151.767 Y105.861 E.02863 ; perimeter
G1 X151.715 Y105.741 E.0041 ; perimeter
G1 X151.284 Y104.301 E.04713 ; perimeter
G1 X151.261 Y104.172 E.00411 ; perimeter
G1 X151.173 Y102.671 E.04714 ; perimeter
G1 X151.181 Y102.54 E.00412 ; perimeter
G1 X151.442 Y101.06 E.04712 ; perimeter
G1 X152.075 Y99.554 E.05122 ; perimeter
G1 X152.885 Y98.44 E.04319 ; perimeter
G1 X153.128 Y98.14 E.0121 ; perimeter
G1 X154.279 Y97.173 E.04713 ; perimeter
G1 X155.732 Y96.427 E.05121 ; perimeter
G1 X155.856 Y96.382 E.00414 ; perimeter
G1 X157.348 Y96.032 E.04805 ; perimeter
M204 S1000 ; adjust acceleration
G1 X157.464 Y96.397 F10800 ; move to first perimeter point
M204 S800 ; adjust acceleration
;TYPE:External perimeter
G1 F1200
G1 X158.995 Y96.402 E.048 ; perimeter
G1 X160.499 Y96.764 E.0485 ; perimeter
G1 X161.842 Y97.438 E.04711 ; perimeter
G1 X163.029 Y98.428 E.04846 ; perimeter
G1 X163.979 Y99.704 E.04988 ; perimeter
G1 X164.587 Y101.126 E.04849 ; perimeter
M73 P1 R65
G1 X164.85 Y102.649 E.04846 ; perimeter
G1 X164.763 Y104.15 E.04714 ; perimeter
G1 X164.324 Y105.633 E.04849 ; perimeter
G1 X163.529 Y107.01 E.04985 ; perimeter
G1 X162.498 Y108.103 E.04711 ; perimeter
G1 X161.209 Y108.957 E.04848 ; perimeter
G1 X159.757 Y109.49 E.0485 ; perimeter
G1 X158.222 Y109.675 E.04848 ; perimeter
G1 X156.643 Y109.49 E.04985 ; perimeter
G1 X155.23 Y108.976 E.04714 ; perimeter
G1 X153.936 Y108.131 E.04846 ; perimeter
G1 X152.871 Y107.01 E.04848 ; perimeter
G1 X152.549 Y106.463 E.0199 ; perimeter
G1 X152.076 Y105.633 E.02995 ; perimeter
G1 X151.637 Y104.15 E.04849 ; perimeter
G1 X151.55 Y102.649 E.04714 ; perimeter
G1 X151.813 Y101.126 E.04846 ; perimeter
G1 X152.421 Y99.704 E.04849 ; perimeter
G1 X153.188 Y98.665 E.04049 ; perimeter
G1 X153.371 Y98.428 E.00939 ; perimeter
G1 X154.522 Y97.462 E.04711 ; perimeter
G1 X155.901 Y96.764 E.04846 ; perimeter
G1 X157.404 Y96.402 E.04847 ; perimeter
M204 S1000 ; adjust acceleration
G1 X157.623 Y96.03 F10800 ; move inwards before travel
;WIPE_START
G1 F8640
G1 X158.995 Y96.402 E-.36737 ; wipe and retract
G1 X160.499 Y96.764 E-.3572 ; wipe and retract
G1 X161.565 Y97.299 E-.27543 ; wipe and retract
;WIPE_END
G1 Z.4 F720 ; lift Z
G1 X81.167 Y102.243 F10800 ; move to first perimeter point
G1 Z.2 F720 ; restore layer Z
G1 E1 F2100 ;  ; unretract
M204 S800 ; adjust acceleration
;TYPE:Perimeter
G1 F1200
G1 X81.425 Y101.589 E.02204 ; perimeter
G1 X81.878 Y100.977 E.02387 ; perimeter
G1 X82.474 Y100.502 E.0239 ; perimeter
G1 X83.174 Y100.196 E.02395 ; perimeter
G1 X83.867 Y100.086 E.022 ; perimeter
G1 X84.678 Y100.164 E.02555 ; perimeter
G1 X85.4 Y100.442 E.02426 ; perimeter
G1 X86.016 Y100.898 E.02403 ; perimeter
G1 X86.317 Y101.252 E.01457 ; perimeter
G1 X86.478 Y99.264 E.06254 ; perimeter
G1 X87.079 Y96.263 E.09596 ; perimeter
G1 X88.018 Y93.353 E.09587 ; perimeter
G1 X89.282 Y90.568 E.09589 ; perimeter
G1 X90.886 Y87.9 E.09761 ; perimeter
G1 X92.754 Y85.478 E.0959 ; perimeter
G1 X94.885 Y83.284 E.0959 ; perimeter
G1 X97.252 Y81.348 E.09588 ; perimeter
G1 X99.824 Y79.694 E.09588 ; perimeter
G1 X102.578 Y78.34 E.09622 ; perimeter
G1 X105.458 Y77.313 E.09587 ; perimeter
G1 X108.438 Y76.621 E.09592 ; perimeter
G1 X111.531 Y76.27 E.0976 ; perimeter
G1 X114.589 Y76.276 E.09588 ; perimeter
G1 X117.626 Y76.632 E.09587 ; perimeter
G1 X120.542 Y77.313 E.09389 ; perimeter
G1 X123.372 Y78.319 E.09417 ; perimeter
G1 X124.845 Y79.046 E.0515 ; perimeter
G1 X124.656 Y78.58 E.01577 ; perimeter
G1 X124.572 Y77.966 E.01943 ; perimeter
G1 X124.653 Y77.202 E.02409 ; perimeter
G1 X124.928 Y76.487 E.02402 ; perimeter
G1 X125.252 Y76.033 E.01749 ; perimeter
G1 X125.483 Y75.763 E.01114 ; perimeter
G1 X125.975 Y75.386 E.01943 ; perimeter
G1 X126.675 Y75.075 E.02402 ; perimeter
G1 X127.432 Y74.956 E.02403 ; perimeter
G1 X128.194 Y75.037 E.02403 ; perimeter
G1 X128.909 Y75.312 E.02402 ; perimeter
G1 X129.528 Y75.763 E.02401 ; perimeter
G1 X130.01 Y76.359 E.02403 ; perimeter
G1 X130.321 Y77.059 E.02402 ; perimeter
G1 X130.44 Y77.816 E.02403 ; perimeter
G1 X130.359 Y78.578 E.02403 ; perimeter
G1 X130.098 Y79.26 E.0229 ; perimeter
G1 X129.633 Y79.912 E.02511 ; perimeter
G1 X129.037 Y80.394 E.02403 ; perimeter
G1 X128.333 Y80.703 E.02411 ; perimeter
G1 X127.863 Y80.782 E.01494 ; perimeter
G1 X128.693 Y81.308 E.03081 ; perimeter
G1 X131.108 Y83.277 E.0977 ; perimeter
G1 X133.282 Y85.519 E.09792 ; perimeter
G1 X135.113 Y87.9 E.09418 ; perimeter
G1 X136.662 Y90.462 E.09387 ; perimeter
G1 X137.939 Y93.241 E.09589 ; perimeter
G1 X138.89 Y96.148 E.0959 ; perimeter
G1 X139.14 Y97.36 E.0388 ; perimeter
G1 X139.512 Y99.198 E.0588 ; perimeter
G1 X139.775 Y102.245 E.09589 ; perimeter
G1 X139.688 Y105.302 E.09589 ; perimeter
G1 X139.253 Y108.33 E.09592 ; perimeter
G1 X138.493 Y111.236 E.09418 ; perimeter
G1 X137.39 Y114.088 E.09588 ; perimeter
G1 X135.941 Y116.842 E.09757 ; perimeter
G1 X134.175 Y119.419 E.09795 ; perimeter
G1 X132.168 Y121.725 E.09585 ; perimeter
G1 X130.001 Y123.713 E.09221 ; perimeter
G1 X127.852 Y125.267 E.08315 ; perimeter
G1 X128.344 Y125.331 E.01556 ; perimeter
G1 X128.915 Y125.566 E.01936 ; perimeter
G1 X129.534 Y126.018 E.02403 ; perimeter
G1 X130.013 Y126.614 E.02397 ; perimeter
G1 X130.322 Y127.312 E.02393 ; perimeter
G1 X130.44 Y128.066 E.02393 ; perimeter
G1 X130.36 Y128.825 E.02393 ; perimeter
G1 X130.086 Y129.539 E.02398 ; perimeter
G1 X129.637 Y130.157 E.02395 ; perimeter
G1 X128.982 Y130.67 E.02609 ; perimeter
G1 X128.346 Y130.952 E.02181 ; perimeter
G1 X127.594 Y131.073 E.02388 ; perimeter
G1 X126.769 Y130.976 E.02605 ; perimeter
G1 X126.117 Y130.725 E.02191 ; perimeter
G1 X125.5 Y130.281 E.02383 ; perimeter
G1 X124.985 Y129.635 E.0259 ; perimeter
G1 X124.7 Y128.994 E.022 ; perimeter
G1 X124.575 Y128.249 E.02369 ; perimeter
G1 X124.664 Y127.427 E.02592 ; perimeter
G1 X124.816 Y127.044 E.01292 ; perimeter
G1 X122.007 Y128.241 E.09574 ; perimeter
G1 X119.072 Y129.103 E.09591 ; perimeter
G1 X116.049 Y129.626 E.09619 ; perimeter
G1 X112.995 Y129.8 E.09591 ; perimeter
G1 X109.887 Y129.619 E.09761 ; perimeter
G1 X106.875 Y129.091 E.09588 ; perimeter
G1 X103.942 Y128.223 E.0959 ; perimeter
G1 X101.186 Y127.054 E.09386 ; perimeter
G1 X98.523 Y125.551 E.09588 ; perimeter
G1 X96.048 Y123.754 E.0959 ; perimeter
G1 X93.788 Y121.679 E.0962 ; perimeter
G1 X91.785 Y119.368 E.09589 ; perimeter
G1 X90.059 Y116.842 E.09592 ; perimeter
G1 X88.637 Y114.147 E.09554 ; perimeter
G1 X87.507 Y111.236 E.09791 ; perimeter
G1 X86.76 Y108.392 E.0922 ; perimeter
G1 X86.314 Y105.312 E.09758 ; perimeter
G1 X86.311 Y104.757 E.0174 ; perimeter
G1 X86.007 Y105.14 E.01533 ; perimeter
G1 X85.466 Y105.544 E.02117 ; perimeter
G1 X84.828 Y105.827 E.02188 ; perimeter
G1 X84.076 Y105.948 E.02388 ; perimeter
G1 X83.251 Y105.851 E.02605 ; perimeter
G1 X82.599 Y105.6 E.02191 ; perimeter
G1 X81.982 Y105.156 E.02383 ; perimeter
G1 X81.467 Y104.51 E.0259 ; perimeter
G1 X81.182 Y103.869 E.022 ; perimeter
G1 X81.058 Y103.124 E.02368 ; perimeter
G1 X81.145 Y102.299 E.02601 ; perimeter
M204 S1000 ; adjust acceleration
G1 X81.502 Y102.482 F10800 ; move to first perimeter point
M204 S800 ; adjust acceleration
;TYPE:External perimeter
G1 F1200
G1 X81.517 Y102.352 E.0041 ; perimeter
G1 X81.772 Y101.737 E.02087 ; perimeter
G1 X82.175 Y101.209 E.02083 ; perimeter
G1 X82.702 Y100.802 E.02088 ; perimeter
G1 X83.316 Y100.545 E.02087 ; perimeter
G1 X83.917 Y100.46 E.01903 ; perimeter
G1 X84.634 Y100.538 E.02261 ; perimeter
G1 X85.254 Y100.79 E.02098 ; perimeter
G1 X85.784 Y101.195 E.02091 ; perimeter
;WIDTH:0.446784
G1 X86.183 Y101.737 E.0226 ; perimeter
;WIDTH:0.474275
G1 X86.234 Y101.834 E.00393 ; perimeter
G1 X86.347 Y102.391 E.02039 ; perimeter
;WIDTH:0.425592
G1 X86.393 Y102.999 E.0194 ; perimeter
;WIDTH:0.417882
G1 X86.364 Y103.607 E.01898 ; perimeter
;WIDTH:0.419999
G1 X86.178 Y104.292 E.02226 ; perimeter
G1 X85.823 Y104.795 E.0193 ; perimeter
G1 X85.241 Y105.241 E.02299 ; perimeter
G1 X84.684 Y105.478 E.01898 ; perimeter
G1 X84.025 Y105.574 E.02088 ; perimeter
G1 X83.305 Y105.477 E.02278 ; perimeter
G1 X82.743 Y105.251 E.01899 ; perimeter
G1 X82.21 Y104.855 E.02082 ; perimeter
G1 X81.767 Y104.282 E.02271 ; perimeter
G1 X81.53 Y103.725 E.01898 ; perimeter
G1 X81.431 Y103.07 E.02077 ; perimeter
G1 X81.495 Y102.541 E.01671 ; perimeter
M204 S1000 ; adjust acceleration
;WIPE_START
G1 F8640
G1 X81.517 Y102.352 E-.04394 ; wipe and retract
G1 X81.772 Y101.737 E-.15373 ; wipe and retract
G1 X82.175 Y101.209 E-.15337 ; wipe and retract
G1 X82.702 Y100.802 E-.15375 ; wipe and retract
G1 X83.316 Y100.545 E-.15369 ; wipe and retract
G1 X83.917 Y100.46 E-.14015 ; wipe and retract
G1 X84.634 Y100.538 E-.16653 ; wipe and retract
G1 X84.774 Y100.595 E-.03484 ; wipe and retract
;WIPE_END
G1 Z.4 F720 ; lift Z
G1 X126.743 Y125.417 F10800 ; move to first perimeter point
G1 Z.2 F720 ; restore layer Z
G1 E1 F2100 ;  ; unretract
M204 S800 ; adjust acceleration
;WIDTH:0.425169
G1 F1200
G1 X126.159 Y125.716 E.02085 ; perimeter
;WIDTH:0.416556
G1 X125.604 Y126.064 E.02035 ; perimeter
;WIDTH:0.461637
G1 X125.127 Y126.427 E.02087 ; perimeter
G1 X124.644 Y126.71 E.01949 ; perimeter
;WIDTH:0.419999
G1 X121.86 Y127.893 E.09484 ; perimeter
G1 X118.945 Y128.746 E.09523 ; perimeter
G1 X116.027 Y129.25 E.09285 ; perimeter
G1 X113.038 Y129.424 E.09388 ; perimeter
G1 X109.974 Y129.25 E.09622 ; perimeter
G1 X107.002 Y128.734 E.09458 ; perimeter
G1 X104.11 Y127.883 E.09452 ; perimeter
G1 X101.333 Y126.707 E.09456 ; perimeter
G1 X98.708 Y125.223 E.09455 ; perimeter
G1 X96.27 Y123.449 E.09454 ; perimeter
G1 X94.073 Y121.432 E.09351 ; perimeter
G1 X92.097 Y119.154 E.09455 ; perimeter
G1 X90.393 Y116.666 E.09455 ; perimeter
G1 X88.971 Y113.971 E.09554 ; perimeter
G1 X87.872 Y111.14 E.09522 ; perimeter
G1 X87.124 Y108.296 E.0922 ; perimeter
G1 X86.687 Y105.258 E.09623 ; perimeter
G1 X86.69 Y104.456 E.02515 ; perimeter
;WIDTH:0.420676
G1 X86.764 Y103.032 E.04479 ; perimeter
;WIDTH:0.422802
G1 X86.729 Y102.392 E.02025 ; perimeter
;WIDTH:0.448539
G1 X86.694 Y102.08 E.01059 ; perimeter
;WIDTH:0.474275
G1 X86.659 Y101.768 E.01126 ; perimeter
G1 X86.677 Y101.513 E.00917 ; perimeter
;WIDTH:0.447137
G1 X86.694 Y101.259 E.00856 ; perimeter
;WIDTH:0.419999
G1 X86.854 Y99.295 E.06178 ; perimeter
G1 X86.939 Y98.866 E.01371 ; perimeter
G1 X87.454 Y96.317 E.08154 ; perimeter
G1 X88.384 Y93.449 E.09453 ; perimeter
G1 X89.635 Y90.705 E.09456 ; perimeter
G1 X91.221 Y88.077 E.09624 ; perimeter
G1 X93.066 Y85.692 E.09454 ; perimeter
G1 X95.171 Y83.533 E.09454 ; perimeter
G1 X97.508 Y81.627 E.09455 ; perimeter
G1 X100.047 Y80.001 E.09453 ; perimeter
G1 X102.705 Y78.695 E.09286 ; perimeter
