; generated by PrusaSlicer 2.6.0+win64 on 2023-07-15 at 16:48:50 UTC


;
;
; 

; external perimeters extrusion width = 0.45mm
; perimeters extrusion width = 0.45mm
; infill extrusion width = 0.45mm
; solid infill extrusion width = 0.45mm
; top infill extrusion width = 0.40mm
; first layer extrusion width = 0.42mm

M73 P0 R19
M73 Q0 S20
M201 X1000 Y1000 Z200 E5000 ; sets maximum accelerations, mm/sec^2
M203 X200 Y200 Z12 E120 ; sets maximum feedrates, mm / sec
M204 S1250 T1250 ; sets acceleration (S) and retract acceleration (R), mm/sec^2
M205 X8.00 Y8.00 Z0.40 E4.50 ; sets the jerk limits, mm/sec
M205 S0 T0 ; sets the minimum extruding and travel feed rate, mm/sec
;TYPE:Custom
M862.3 P "MK3S" ; printer model check
M862.1 P0.4 ; nozzle diameter check
M115 U3.10.0 ; tell printer latest fw version
M221 S100 ; reset flow
M220 S100 ; reset speed
G90 ; use absolute coordinates
M83 ; extruder relative mode
M104 S200 ; set extruder temp to x-40
M140 S85 ; set bed temp
M109 S200 ; wait for extruder temp
M190 S85 ; wait for bed temp
G28 W ; home all without mesh bed level
G80 ; mesh bed leveling
G1 Y-3.0 Z0.15 F1000.0 ; go outside print area
M84 ; disable motors
M117 Heating nozzle
M104 S240 ; set extruder temp
M109 S240 ; wait for extruder temp
G92 E0.0

G1 X60.0 E9.0 F1000.0 ; intro line
G1 X100.0 E12.5 F1000.0 ; intro line
G92 E0.0
M221 S95

; Don't change E values below. Excessive value can damage the printer.
M907 E430 ; set extruder motor current
G21 ; set units to millimeters
G90 ; use absolute coordinates
M83 ; use relative distances for extrusion
M900 K0.08 ; Filament gcode LA 1.5
M900 K45 ; Filament gcode LA 1.0
M107 ; disable fan
;LAYER_CHANGE
;Z:0.2
;HEIGHT:0.2
;BEFORE_LAYER_CHANGE
G92 E0.0
;0.2
;LAYER:0


M73 Q0 S19
G1 E-1 F2100 ; retract
G1 Z.2 F720 ; lift Z
;AFTER_LAYER_CHANGE
;0.2
G1 Z.4 ; lift Z
G1 X102.011 Y87.361 F10800 ; move to first skirt point
G1 Z.2 F720 ; restore layer Z
G1 E1 F2100 ;  ; unretract
M204 S800 ; adjust acceleration
;TYPE:Skirt/Brim
;WIDTH:0.42
G1 F1200
G1 X103.056 Y86.484 E.04277 ; skirt
G1 X103.996 Y86.291 E.03009 ; skirt
G1 X146.004 Y86.291 E1.31713 ; skirt
G1 X147.311 Y86.682 E.04277 ; skirt
G1 X148.187 Y87.728 E.04278 ; skirt
G1 X148.381 Y88.668 E.03009 ; skirt
G1 X148.381 Y121.332 E1.02416 ; skirt
G1 X147.989 Y122.639 E.04278 ; skirt
G1 X146.944 Y123.516 E.04277 ; skirt
G1 X146.004 Y123.709 E.03009 ; skirt
G1 X103.996 Y123.709 E1.31713 ; skirt
G1 X102.689 Y123.318 E.04277 ; skirt
M73 P1 R19
M73 Q1 S19
G1 X101.813 Y122.272 E.04278 ; skirt
G1 X101.619 Y121.332 E.03009 ; skirt
G1 X101.619 Y88.668 E1.02416 ; skirt
G1 X101.993 Y87.418 E.04091 ; skirt
M204 S1000 ; adjust acceleration
; printing object Bottom Panel id:0 copy 0
;WIPE_START
G1 F8640
G1 X103.056 Y86.484 E-.32674 ; wipe and retract
G1 X103.996 Y86.291 E-.22158 ; wipe and retract
G1 X105.952 Y86.291 E-.45168 ; wipe and retract
;WIPE_END
G1 Z.4 F720 ; lift Z
G1 X104.783 Y89.455 F10800 ; move to first perimeter point
G1 Z.2 F720 ; restore layer Z
G1 E1 F2100 ;  ; unretract
M204 S800 ; adjust acceleration
;TYPE:Perimeter
;WIDTH:0.419999
G1 F1200
G1 X145.217 Y89.455 E1.26778 ; perimeter
G1 X145.217 Y120.545 E.9748 ; perimeter
G1 X104.783 Y120.545 E1.26778 ; perimeter
G1 X104.783 Y89.515 E.97292 ; perimeter
M204 S1000 ; adjust acceleration
G1 X104.406 Y89.078 F10800 ; move to first perimeter point
M204 S800 ; adjust acceleration
;TYPE:External perimeter
G1 F1200
G1 X145.594 Y89.078 E1.29142 ; perimeter
G1 X145.594 Y120.922 E.99844 ; perimeter
M73 P2 R19
M73 Q2 S19
G1 X104.406 Y120.922 E1.29142 ; perimeter
G1 X104.406 Y89.138 E.99656 ; perimeter
M204 S1000 ; adjust acceleration
G1 X104.797 Y89.165 F10800 ; move inwards before travel
;WIPE_START
G1 F8640
G1 X108.737 Y89.132 E-1 ; wipe and retract
;WIPE_END
G1 Z.4 F720 ; lift Z
G1 X145.047 Y90.393 F10800 ; move to first infill point
G1 Z.2 F720 ; restore layer Z
G1 E1 F2100 ;  ; unretract
M204 S800 ; adjust acceleration
;TYPE:Solid infill
;WIDTH:0.422832
G1 F1200
G1 X144.449 Y89.794 E.02674 ; infill
G1 X143.911 Y89.794 E.017 ; infill
G1 X144.877 Y90.76 E.04316 ; infill
G1 X144.877 Y91.298 E.017 ; infill
G1 X143.374 Y89.794 E.06717 ; infill
G1 X142.837 Y89.794 E.01696 ; infill
G1 X144.877 Y91.835 E.09116 ; infill
G1 X144.877 Y92.372 E.01696 ; infill
G1 X142.299 Y89.794 E.11517 ; infill
G1 X141.762 Y89.794 E.01696 ; infill
G1 X144.877 Y92.91 E.13918 ; infill
G1 X144.877 Y93.447 E.01696 ; infill
G1 X141.225 Y89.794 E.16317 ; infill
G1 X140.688 Y89.794 E.01696 ; infill
G1 X144.877 Y93.984 E.18716 ; infill
G1 X144.877 Y94.521 E.01696 ; infill
G1 X140.15 Y89.794 E.21118 ; infill
G1 X139.613 Y89.794 E.01696 ; infill
G1 X144.877 Y95.059 E.23519 ; infill
G1 X144.877 Y95.596 E.01696 ; infill
G1 X139.076 Y89.794 E.25918 ; infill
G1 X138.538 Y89.794 E.017 ; infill
G1 X144.877 Y96.133 E.28319 ; infill
G1 X144.877 Y96.67 E.01696 ; infill
G1 X138.001 Y89.794 E.30718 ; infill
G1 X137.464 Y89.794 E.01696 ; infill
G1 X144.877 Y97.208 E.3312 ; infill
G1 X144.877 Y97.745 E.01696 ; infill
G1 X136.927 Y89.794 E.35519 ; infill
G1 X136.389 Y89.794 E.017 ; infill
M73 P3 R19
M73 Q3 S19
G1 X144.877 Y98.282 E.3792 ; infill
G1 X144.877 Y98.82 E.017 ; infill
G1 X135.852 Y89.794 E.40321 ; infill
G1 X135.315 Y89.794 E.01696 ; infill
G1 X144.877 Y99.357 E.4272 ; infill
G1 X144.877 Y99.894 E.01696 ; infill
G1 X134.778 Y89.794 E.45119 ; infill
G1 X134.24 Y89.794 E.017 ; infill
G1 X144.877 Y100.431 E.47521 ; infill
G1 X144.877 Y100.969 E.017 ; infill
G1 X133.703 Y89.794 E.49922 ; infill
G1 X133.166 Y89.794 E.01696 ; infill
G1 X144.877 Y101.506 E.52321 ; infill
G1 X144.877 Y102.043 E.01696 ; infill
G1 X132.628 Y89.794 E.54722 ; infill
G1 X132.091 Y89.794 E.01696 ; infill
G1 X144.877 Y102.58 E.57121 ; infill
G1 X144.877 Y103.118 E.017 ; infill
G1 X131.554 Y89.794 E.59522 ; infill
G1 X131.017 Y89.794 E.01696 ; infill
G1 X144.877 Y103.655 E.61921 ; infill
G1 X144.877 Y104.192 E.01696 ; infill
G1 X130.479 Y89.794 E.64323 ; infill
G1 X129.942 Y89.794 E.01696 ; infill
G1 X144.877 Y104.73 E.66724 ; infill
G1 X144.877 Y105.267 E.01696 ; infill
G1 X129.405 Y89.794 E.69123 ; infill
G1 X128.867 Y89.794 E.017 ; infill
M73 P4 R19
M73 Q4 S19
G1 X144.877 Y105.804 E.71524 ; infill
G1 X144.877 Y106.341 E.01696 ; infill
G1 X128.33 Y89.794 E.73923 ; infill
G1 X127.793 Y89.794 E.01696 ; infill
G1 X144.877 Y106.879 E.76325 ; infill
G1 X144.877 Y107.416 E.01696 ; infill
M73 P4 R18
G1 X127.256 Y89.794 E.78724 ; infill
G1 X126.718 Y89.794 E.017 ; infill
G1 X144.877 Y107.953 E.81125 ; infill
G1 X144.877 Y108.491 E.017 ; infill
G1 X126.181 Y89.794 E.83526 ; infill
G1 X125.644 Y89.794 E.01696 ; infill
G1 X144.877 Y109.028 E.85925 ; infill
G1 X144.877 Y109.565 E.01696 ; infill
G1 X125.107 Y89.794 E.88324 ; infill
G1 X124.569 Y89.794 E.017 ; infill
G1 X144.877 Y110.102 E.90725 ; infill
G1 X144.877 Y110.64 E.017 ; infill
M73 P5 R18
M73 Q5 S19
G1 X124.032 Y89.794 E.93127 ; infill
G1 X123.495 Y89.794 E.01696 ; infill
M73 Q5 S18
G1 X144.877 Y111.177 E.95526 ; infill
G1 X144.877 Y111.714 E.01696 ; infill
G1 X122.957 Y89.794 E.97927 ; infill
G1 X122.42 Y89.794 E.01696 ; infill
G1 X144.877 Y112.251 E1.00326 ; infill
G1 X144.877 Y112.789 E.017 ; infill
G1 X121.883 Y89.794 E1.02727 ; infill
G1 X121.346 Y89.794 E.01696 ; infill
G1 X144.877 Y113.326 E1.05126 ; infill
G1 X144.877 Y113.863 E.01696 ; infill
G1 X120.808 Y89.794 E1.07528 ; infill
G1 X120.271 Y89.794 E.01696 ; infill
M73 P6 R18
M73 Q6 S18
G1 X144.877 Y114.401 E1.09929 ; infill
G1 X144.877 Y114.938 E.01696 ; infill
G1 X119.734 Y89.794 E1.12328 ; infill
G1 X119.197 Y89.794 E.01696 ; infill
G1 X144.877 Y115.475 E1.14727 ; infill
G1 X144.877 Y116.012 E.01696 ; infill
G1 X118.659 Y89.794 E1.17128 ; infill
G1 X118.122 Y89.794 E.01696 ; infill
G1 X144.877 Y116.55 E1.19529 ; infill
G1 X144.877 Y117.087 E.01696 ; infill
G1 X117.585 Y89.794 E1.21929 ; infill
G1 X117.047 Y89.794 E.017 ; infill
G1 X144.877 Y117.624 E1.2433 ; infill
G1 X144.877 Y118.162 E.017 ; infill
M73 P7 R18
M73 Q7 S18
G1 X116.51 Y89.794 E1.26731 ; infill
G1 X115.973 Y89.794 E.01696 ; infill
G1 X144.877 Y118.699 E1.2913 ; infill
G1 X144.877 Y119.236 E.01696 ; infill
G1 X115.436 Y89.794 E1.31529 ; infill
G1 X114.898 Y89.794 E.017 ; infill
G1 X144.877 Y119.773 E1.3393 ; infill
G1 X144.877 Y120.206 E.01368 ; infill
G1 X144.773 Y120.206 E.00329 ; infill
G1 X114.361 Y89.794 E1.35865 ; infill
G1 X113.824 Y89.794 E.01696 ; infill
M73 P8 R18
G1 X144.235 Y120.206 E1.35863 ; infill
G1 X143.698 Y120.206 E.01696 ; infill
M73 Q8 S18
G1 X113.286 Y89.794 E1.35865 ; infill
G1 X112.749 Y89.794 E.01696 ; infill
G1 X143.161 Y120.206 E1.35865 ; infill
G1 X142.623 Y120.206 E.017 ; infill
G1 X112.212 Y89.794 E1.35863 ; infill
G1 X111.675 Y89.794 E.01696 ; infill
G1 X142.086 Y120.206 E1.35863 ; infill
G1 X141.549 Y120.206 E.01696 ; infill
G1 X111.137 Y89.794 E1.35865 ; infill
G1 X110.6 Y89.794 E.01696 ; infill
M73 P9 R18
M73 Q9 S18
G1 X141.012 Y120.206 E1.35865 ; infill
G1 X140.474 Y120.206 E.017 ; infill
G1 X110.063 Y89.794 E1.35863 ; infill
G1 X109.526 Y89.794 E.01696 ; infill
M73 P9 R17
G1 X139.937 Y120.206 E1.35863 ; infill
G1 X139.4 Y120.206 E.01696 ; infill
G1 X108.988 Y89.794 E1.35865 ; infill
G1 X108.451 Y89.794 E.01696 ; infill
G1 X138.863 Y120.206 E1.35865 ; infill
G1 X138.325 Y120.206 E.017 ; infill
M73 P10 R17
M73 Q10 S18
G1 X107.914 Y89.794 E1.35863 ; infill
G1 X107.376 Y89.794 E.017 ; infill
M73 Q10 S17
G1 X137.788 Y120.206 E1.35865 ; infill
G1 X137.251 Y120.206 E.01696 ; infill
G1 X106.839 Y89.794 E1.35865 ; infill
G1 X106.302 Y89.794 E.01696 ; infill
G1 X136.713 Y120.206 E1.35863 ; infill
G1 X136.176 Y120.206 E.01696 ; infill
G1 X105.765 Y89.794 E1.35863 ; infill
G1 X105.227 Y89.794 E.017 ; infill
G1 X135.639 Y120.206 E1.35865 ; infill
G1 X135.102 Y120.206 E.01696 ; infill
M73 P11 R17
M73 Q11 S17
G1 X105.123 Y90.227 E1.3393 ; infill
G1 X105.123 Y90.764 E.01696 ; infill
G1 X134.564 Y120.206 E1.31529 ; infill
G1 X134.027 Y120.206 E.01696 ; infill
G1 X105.123 Y91.301 E1.2913 ; infill
G1 X105.123 Y91.839 E.017 ; infill
G1 X133.49 Y120.206 E1.26729 ; infill
G1 X132.953 Y120.206 E.01696 ; infill
G1 X105.123 Y92.376 E1.2433 ; infill
G1 X105.123 Y92.913 E.01696 ; infill
M73 P12 R17
G1 X132.415 Y120.206 E1.21929 ; infill
G1 X131.878 Y120.206 E.01696 ; infill
M73 Q12 S17
G1 X105.123 Y93.45 E1.19529 ; infill
G1 X105.123 Y93.988 E.017 ; infill
G1 X131.341 Y120.206 E1.17128 ; infill
G1 X130.803 Y120.206 E.017 ; infill
G1 X105.123 Y94.525 E1.14727 ; infill
G1 X105.123 Y95.062 E.01696 ; infill
G1 X130.266 Y120.206 E1.12328 ; infill
G1 X129.729 Y120.206 E.01696 ; infill
G1 X105.123 Y95.6 E1.09927 ; infill
G1 X105.123 Y96.137 E.01696 ; infill
G1 X129.192 Y120.206 E1.07528 ; infill
G1 X128.654 Y120.206 E.017 ; infill
M73 P13 R17
M73 Q13 S17
G1 X105.123 Y96.674 E1.05126 ; infill
G1 X105.123 Y97.211 E.01696 ; infill
G1 X128.117 Y120.206 E1.02727 ; infill
G1 X127.58 Y120.206 E.01696 ; infill
G1 X105.123 Y97.749 E1.00326 ; infill
G1 X105.123 Y98.286 E.01696 ; infill
G1 X127.042 Y120.206 E.97925 ; infill
G1 X126.505 Y120.206 E.01696 ; infill
G1 X105.123 Y98.823 E.95526 ; infill
G1 X105.123 Y99.36 E.01696 ; infill
G1 X125.968 Y120.206 E.93127 ; infill
G1 X125.431 Y120.206 E.01696 ; infill
G1 X105.123 Y99.898 E.90725 ; infill
G1 X105.123 Y100.435 E.01696 ; infill
M73 P14 R17
G1 X124.893 Y120.206 E.88324 ; infill
G1 X124.356 Y120.206 E.01696 ; infill
M73 Q14 S17
G1 X105.123 Y100.972 E.85925 ; infill
G1 X105.123 Y101.51 E.017 ; infill
G1 X123.819 Y120.206 E.83524 ; infill
G1 X123.282 Y120.206 E.01696 ; infill
M73 P14 R16
G1 X105.123 Y102.047 E.81125 ; infill
G1 X105.123 Y102.584 E.01696 ; infill
G1 X122.744 Y120.206 E.78724 ; infill
G1 X122.207 Y120.206 E.01696 ; infill
G1 X105.123 Y103.121 E.76325 ; infill
G1 X105.123 Y103.659 E.017 ; infill
G1 X121.67 Y120.206 E.73923 ; infill
G1 X121.132 Y120.206 E.017 ; infill
G1 X105.123 Y104.196 E.71522 ; infill
G1 X105.123 Y104.733 E.01696 ; infill
G1 X120.595 Y120.206 E.69123 ; infill
G1 X120.058 Y120.206 E.01696 ; infill
M73 P15 R16
G1 X105.123 Y105.271 E.66722 ; infill
G1 X105.123 Y105.808 E.01696 ; infill
M73 Q15 S17
G1 X119.521 Y120.206 E.64323 ; infill
G1 X118.983 Y120.206 E.017 ; infill
M73 Q15 S16
G1 X105.123 Y106.345 E.61921 ; infill
G1 X105.123 Y106.882 E.01696 ; infill
G1 X118.446 Y120.206 E.59522 ; infill
G1 X117.909 Y120.206 E.01696 ; infill
G1 X105.123 Y107.42 E.57121 ; infill
G1 X105.123 Y107.957 E.01696 ; infill
G1 X117.371 Y120.206 E.5472 ; infill
G1 X116.834 Y120.206 E.01696 ; infill
G1 X105.123 Y108.494 E.52321 ; infill
G1 X105.123 Y109.031 E.01696 ; infill
G1 X116.297 Y120.206 E.49922 ; infill
G1 X115.76 Y120.206 E.01696 ; infill
G1 X105.123 Y109.569 E.47521 ; infill
G1 X105.123 Y110.106 E.01696 ; infill
G1 X115.222 Y120.206 E.45119 ; infill
G1 X114.685 Y120.206 E.01696 ; infill
G1 X105.123 Y110.643 E.4272 ; infill
G1 X105.123 Y111.181 E.017 ; infill
G1 X114.148 Y120.206 E.40319 ; infill
G1 X113.611 Y120.206 E.01696 ; infill
G1 X105.123 Y111.718 E.3792 ; infill
G1 X105.123 Y112.255 E.01696 ; infill
G1 X113.073 Y120.206 E.35519 ; infill
G1 X112.536 Y120.206 E.01696 ; infill
M73 P16 R16
G1 X105.123 Y112.792 E.3312 ; infill
G1 X105.123 Y113.33 E.017 ; infill
G1 X111.999 Y120.206 E.30718 ; infill
G1 X111.461 Y120.206 E.017 ; infill
M73 Q16 S16
G1 X105.123 Y113.867 E.28317 ; infill
G1 X105.123 Y114.404 E.01696 ; infill
G1 X110.924 Y120.206 E.25918 ; infill
G1 X110.387 Y120.206 E.01696 ; infill
G1 X105.123 Y114.941 E.23519 ; infill
G1 X105.123 Y115.479 E.017 ; infill
G1 X109.85 Y120.206 E.21118 ; infill
G1 X109.312 Y120.206 E.017 ; infill
G1 X105.123 Y116.016 E.18716 ; infill
G1 X105.123 Y116.553 E.01696 ; infill
G1 X108.775 Y120.206 E.16317 ; infill
G1 X108.238 Y120.206 E.01696 ; infill
G1 X105.123 Y117.091 E.13916 ; infill
G1 X105.123 Y117.628 E.01696 ; infill
G1 X107.7 Y120.206 E.11515 ; infill
G1 X107.163 Y120.206 E.01696 ; infill
G1 X105.123 Y118.165 E.09116 ; infill
G1 X105.123 Y118.702 E.01696 ; infill
G1 X106.626 Y120.206 E.06717 ; infill
G1 X106.089 Y120.206 E.01696 ; infill
G1 X105.123 Y119.24 E.04316 ; infill
G1 X105.123 Y119.777 E.01696 ; infill
G1 X105.721 Y120.375 E.02672 ; infill
M204 S1000 ; adjust acceleration
; stop printing object Bottom Panel id:0 copy 0
;LAYER_CHANGE
;Z:0.4
;HEIGHT:0.2
;BEFORE_LAYER_CHANGE
G92 E0.0
;0.4
;LAYER:1


;WIPE_START
G1 F8640
G1 X105.123 Y119.777 E-.19527 ; wipe and retract
G1 X105.123 Y119.24 E-.12399 ; wipe and retract
G1 X106.089 Y120.206 E-.31544 ; wipe and retract
G1 X106.626 Y120.206 E-.12399 ; wipe and retract
G1 X105.887 Y119.467 E-.24131 ; wipe and retract
;WIPE_END
G1 Z.4 F720 ; lift Z
;AFTER_LAYER_CHANGE
;0.4
M104 S250 ; set temperature
M140 S90 ; set bed temperature
G1 Z.6 ; lift Z
G1 X105.887 Y123.709 F10800 ; move to first skirt point
G1 Z.4 F720 ; restore layer Z
G1 E1 F2100 ;  ; unretract
;TYPE:Skirt/Brim
;WIDTH:0.42
G1 F3000
G1 X103.996 Y123.709 E.05929 ; skirt
G1 X102.689 Y123.318 E.04277 ; skirt
G1 X101.813 Y122.272 E.04278 ; skirt
G1 X101.619 Y121.332 E.03009 ; skirt
G1 X101.619 Y88.668 E1.02416 ; skirt
G1 X102.011 Y87.361 E.04278 ; skirt
G1 X103.056 Y86.484 E.04277 ; skirt
G1 X103.996 Y86.291 E.03009 ; skirt
G1 X146.004 Y86.291 E1.31713 ; skirt
G1 X147.311 Y86.682 E.04277 ; skirt
G1 X148.187 Y87.728 E.04278 ; skirt
G1 X148.381 Y88.668 E.03009 ; skirt
G1 X148.381 Y121.332 E1.02416 ; skirt
G1 X147.989 Y122.639 E.04278 ; skirt
G1 X146.944 Y123.516 E.04277 ; skirt
G1 X146.004 Y123.709 E.03009 ; skirt
G1 X105.947 Y123.709 E1.25596 ; skirt
; printing object Bottom Panel id:0 copy 0
;WIPE_START
G1 F8640
G1 X103.996 Y123.709 E-.45049 ; wipe and retract
G1 X102.689 Y123.318 E-.31501 ; wipe and retract
G1 X102.037 Y122.539 E-.2345 ; wipe and retract
;WIPE_END
G1 Z.6 F720 ; lift Z
G1 X145.372 Y120.7 F10800 ; move to first perimeter point
G1 Z.4 F720 ; restore layer Z
G1 E1 F2100 ;  ; unretract
M204 S800 ; adjust acceleration
;TYPE:Perimeter
;WIDTH:0.449999
G1 F2700
G1 X104.628 Y120.7 E1.37913 ; perimeter
G1 X104.628 Y89.3 E1.06285 ; perimeter
G1 X145.372 Y89.3 E1.37913 ; perimeter
G1 X145.372 Y120.64 E1.06082 ; perimeter
